X:1118
T:"The Swaggering Jig" (slipjig)  1118
C:after Mr. Early
B:O'Neill's Music Of Ireland (The 1850) Lyon & Healy, Chicago, 1903 edition
Z:FROM O'NEILL'S TO NOTEWORTHY, FROM NOTEWORTHY TO ABC, MIDI AND .TXT BY VINCE
BRENNAN July 2003 (HTTP://WWW.SOSYOURMOM.COM)
I:abc2nwc
M:9/8
L:1/8
K:G
d|BGG AGE DGG|BAG GFG A zd|BGG AGE DGG|cBA BGE D2:|
(A/2d3/2)d d2e f2f|Add dBG A zc|Bdd dge dBG|cBA BGE D zc||
.B(dc) dgf dBG|Bdd dBG A zf|{a}gfe dBd cBA|cBA BGE D2|]


